X:207
%%etbk:tnset id:156,pos:3,rep:3x,ant:
%%etbk:wsite http://www.trad.katesplacedoolin.com/tunes/boyinthegap.html
%%etbk:pldat 2016-07-21T18:55,2015-12-28T17:48,2015-04-28T17:41,2015-01-20T17:43,2014-12-31T15:13,2014-12-14T16:16,2014-09-26T18:09,2014-09-10T16:40,2014-04-27T15:09,2014-03-12T18:32,2014-02-25T19:26,2014-02-16T16:12,2014-02-15T16:25,2014-02-05T15:52,2014-02-04T18:38,2013-11-19T17:08,2013-11-12T17:44,2013-11-06T18:16,2013-11-05T18:30,2013-11-04T18:40,2013-05-18T13:52,2013-05-15T16:35,2013-05-14T18:47,2013-05-05T13:40,2013-05-02T18:19
T:Boy in the Gap, The
Z: Piano Box Version by Martin Fleischmann
H: Created 2013-02-19 /  Last Modified 2013-03-03
R:Reel
M:4/4
K: Dmaj
"D"!1!D2!2!F!3!A !5!d2d!4!c | "A"!2!ABA!1!G !2!EFGE | "D"!1!D2!2!F!3!A !5!d!3!fe!1!d | "A"!4!c!2!A!1!G!2!E "D"!2!E!1!DDE |
"D"!1!D2!2!F!3!A !5!d2d!4!c | "A"!2!ABA!1!G !2!EFGE | "D"!1!D2!2!F!3!A !5!d!3!fe!1!d | "A"!4!c!2!A!1!G!2!E "D"!2!E!1!DD2 |
|:"D" !3!f2fg fedf | "A"!2!e2ef !2!e!1!d!3!cB | !1!ABcd !5!ed!3!c!1!d | !2!eaag eaag |
"D" !3!f2fg fedf | "A"!2!e2ef !2!e!1!d!3!cB | !1!ABcd !5!e2!4!d!3!B | !2!A2!1!G!2!E "D"!2!E!1!DD2:|
|: "D"!1!d!3!f!3!f{g}!3!f dff{g}f | "A"!1!c!2!e!2!e{g}!2!e cee{g}e | "D"!1!d!3!ffe f2fg | "A"!5!a2ge "D"fdde|
"D"!3!f2ef !1!d!2!B!1!A!2!F | "G"!3!G2!5!BG !1!EFG!1!E | "D"!1!D2FA !5!d2d!4!c | "A"!2!A2!1!G!2!E "D"!2!E!1!DD2:|


